svgs/solid/poll-people.svg

<svg xmlns="http://www.w3.org/2000/svg" viewBox="0 0 640 512"><!--! Font Awesome Pro 6.6.0 by @fontawesome - https://fontawesome.com License - https://fontawesome.com/license (Commercial License) Copyright 2024 Fonticons, Inc. --><path d="M128 48A48 48 0 1 0 32 48a48 48 0 1 0 96 0zm448 80l-96 0 0-32 96 0 0 32zM272 32c-26.5 0-48 21.5-48 48l0 64c0 26.5 21.5 48 48 48l320 0c26.5 0 48-21.5 48-48l0-64c0-26.5-21.5-48-48-48L272 32zM576 416l-224 0 0-32 224 0 0 32zM272 320c-26.5 0-48 21.5-48 48l0 64c0 26.5 21.5 48 48 48l320 0c26.5 0 48-21.5 48-48l0-64c0-26.5-21.5-48-48-48l-320 0zM64 128c-35.3 0-64 28.7-64 64c0 17.7 14.3 32 32 32l96 0c17.7 0 32-14.3 32-32c0-35.3-28.7-64-64-64l-32 0zm64 208a48 48 0 1 0 -96 0 48 48 0 1 0 96 0zM64 416c-35.3 0-64 28.7-64 64c0 17.7 14.3 32 32 32l96 0c17.7 0 32-14.3 32-32c0-35.3-28.7-64-64-64l-32 0z"/></svg>

<svg xmlns="http://www.w3.org/2000/svg" viewBox="0 0 640 512"><!--! Font Awesome Pro 6.5.2 by @fontawesome - https://fontawesome.com License - https://fontawesome.com/license (Commercial License) Copyright 2024 Fonticons, Inc. --><path d="M128 48A48 48 0 1 0 32 48a48 48 0 1 0 96 0zm448 80H480V96h96v32zM272 32c-26.5 0-48 21.5-48 48v64c0 26.5 21.5 48 48 48H592c26.5 0 48-21.5 48-48V80c0-26.5-21.5-48-48-48H272zM576 416H352V384H576v32zM272 320c-26.5 0-48 21.5-48 48v64c0 26.5 21.5 48 48 48H592c26.5 0 48-21.5 48-48V368c0-26.5-21.5-48-48-48H272zM64 128c-35.3 0-64 28.7-64 64c0 17.7 14.3 32 32 32h96c17.7 0 32-14.3 32-32c0-35.3-28.7-64-64-64H64zm64 208a48 48 0 1 0 -96 0 48 48 0 1 0 96 0zM64 416c-35.3 0-64 28.7-64 64c0 17.7 14.3 32 32 32h96c17.7 0 32-14.3 32-32c0-35.3-28.7-64-64-64H64z"/></svg>
